src/assets/images/partners-color-logo-1.svg

<svg width="128" height="25" viewBox="0 0 128 25" fill="none" xmlns="http://www.w3.org/2000/svg">
<path d="M0.894531 24.7813V0.00012207C4.11146 0.00012207 7.32839 0.00012207 10.5453 0.00012207C13.7623 0.00012207 16.9668 0.00012207 20.1601 0.00012207V5.51857H16.3619C15.391 5.51857 14.5428 5.38117 13.8163 5.10412C13.0887 4.8282 12.4286 4.48133 11.8339 4.0635C11.2392 3.6468 10.6715 3.21659 10.1308 2.77511C9.59241 2.33364 9.02471 1.93721 8.42773 1.58583C7.83301 1.2322 7.16169 0.988938 6.41377 0.856045V11.7308C6.85531 10.8726 7.46581 10.1451 8.24751 9.55042C9.03147 8.95578 9.96186 8.64719 11.0409 8.62242C11.701 8.62242 12.3791 8.69449 13.0729 8.83865C13.7668 8.98281 14.4606 9.1157 15.1545 9.23508C15.8483 9.35558 16.5196 9.395 17.1684 9.3522C17.8195 9.30715 18.4435 9.09768 19.0382 8.72152L18.0785 14.2084C17.3092 14.5148 16.5759 14.6353 15.8798 14.5688C15.186 14.5035 14.5192 14.3334 13.8794 14.0598C13.2419 13.7839 12.6201 13.4865 12.0141 13.1678C11.4104 12.8468 10.8044 12.5709 10.1984 12.3389C9.59128 12.108 8.97853 12.0089 8.36015 12.0416C7.74402 12.0754 7.09523 12.3119 6.41377 12.7534V24.7813H0.894531Z" fill="#B5C8C4"/>
<path d="M36.9438 24.7813L35.3578 20.0242H27.9237L26.3378 24.7813H20.5527L28.7482 0.00012207H34.5649L42.7604 24.7813H36.9438ZM35.128 19.2944L29.1132 1.12183L28.2526 3.76618C27.7897 5.13341 27.5363 6.4004 27.4912 7.56828C27.4484 8.73391 27.5104 9.82859 27.6759 10.8523C27.8404 11.8772 28.0229 12.857 28.2211 13.794C28.4193 14.731 28.5387 15.6522 28.5815 16.5555C28.6266 17.4564 28.4937 18.3698 28.1851 19.2944H35.128Z" fill="#B5C8C4"/>
<path d="M57.9896 0.00012207H63.4773V24.7813H57.9896V21.5108C56.8204 22.4152 55.5262 23.1866 54.1059 23.8263C52.6844 24.4637 51.2246 24.7813 49.7265 24.7813C48.6272 24.7813 47.7182 24.573 47.0007 24.1552C46.2854 23.7351 45.7234 23.1776 45.3156 22.4839C44.9068 21.7901 44.6195 21.0096 44.4551 20.1413C44.2895 19.2708 44.2073 18.3732 44.2073 17.4474V0.00012207H49.7265V5.51857C49.7265 6.7957 49.4843 7.98498 49.0011 9.08642C48.5168 10.189 47.9885 11.3118 47.4152 12.456C47.0187 13.2286 46.6921 14.1093 46.4375 15.1004C46.1852 16.0915 46.059 17.0949 46.059 18.1096C46.059 19.1221 46.2134 20.0535 46.5231 20.9027C46.8317 21.7496 47.3386 22.4208 48.0415 22.9163C48.7466 23.4119 49.7051 23.6484 50.916 23.6236C52.2158 23.5819 53.4717 23.27 54.6826 22.6866C55.8957 22.1009 56.9984 21.4004 57.9896 20.5828V0.00012207Z" fill="#B5C8C4"/>
<path d="M75.3008 24.7813C74.0663 24.7813 72.8599 24.5234 71.6829 24.0065C70.5047 23.4873 69.4414 22.6945 68.493 21.6279C67.5468 20.5592 66.7921 19.1987 66.2312 17.5465C65.6691 15.8955 65.3887 13.9336 65.3887 11.6632C65.3887 10.2757 65.5374 8.89496 65.8347 7.51873C66.1321 6.14024 66.6108 4.88564 67.272 3.75267C67.932 2.61744 68.8185 1.70971 69.9302 1.02723C71.0442 0.342491 72.415 0.00012207 74.0437 0.00012207H84.6542V5.51857H79.9279C79.3783 5.51857 78.8827 5.39244 78.4411 5.14016C77.9996 4.88564 77.5738 4.57142 77.1661 4.19865C76.7606 3.82362 76.3303 3.44408 75.8775 3.05892C75.4269 2.6715 74.9043 2.35616 74.3096 2.1129C73.1652 1.62975 72.1571 1.45406 71.2864 1.58583C70.4146 1.71872 69.688 2.07686 69.1057 2.66249C68.5222 3.24587 68.0706 3.96665 67.7496 4.82482C67.4308 5.68412 67.2382 6.60424 67.1729 7.5863C67.1064 8.56611 67.1503 9.50537 67.3035 10.4063C67.6121 12.1249 68.2564 13.6667 69.2364 15.0328C70.2186 16.4001 71.4463 17.4632 72.9219 18.2223C74.3997 18.9825 76.0183 19.3192 77.7788 19.2314C79.0133 19.166 80.1814 18.8079 81.2841 18.1592C82.3857 17.5082 83.146 16.5983 83.5639 15.4293C83.9806 14.2197 83.948 13.3063 83.4648 12.6903C82.9804 12.072 82.0996 12.0371 80.82 12.5867C80.0924 12.8964 79.349 13.2557 78.5898 13.6634C77.8295 14.0688 77.041 14.3548 76.2244 14.5193C75.41 14.6848 74.5303 14.5812 73.5842 14.2084L72.6245 8.72152C73.2192 9.09768 73.841 9.30715 74.4898 9.3522C75.1408 9.395 75.8144 9.35558 76.5083 9.23508C77.2021 9.1157 77.896 8.98281 78.5898 8.83865C79.2836 8.69449 79.9606 8.62242 80.6218 8.62242C81.7031 8.62242 82.5287 8.87694 83.0998 9.38374C83.6731 9.89166 84.0753 10.5359 84.3073 11.3163C84.5382 12.0979 84.6542 12.9178 84.6542 13.776C84.6745 15.2085 84.4931 16.5814 84.109 17.8934C83.7238 19.2032 83.1359 20.3756 82.3429 21.4117C81.5499 22.4478 80.5688 23.27 79.4008 23.8759C78.2316 24.4795 76.8653 24.7813 75.3008 24.7813Z" fill="#B5C8C4"/>
<path d="M98.8268 19.3305C99.7065 19.3969 100.631 19.3305 101.602 19.1322C102.572 18.934 103.474 18.5984 104.31 18.1232C105.148 17.649 105.808 17.015 106.292 16.2221L106.955 16.5555C106.339 18.0961 105.556 19.4904 104.607 20.736C103.661 21.9793 102.548 22.9648 101.269 23.6912C99.9914 24.4187 98.5272 24.7813 96.8759 24.7813C95.0669 24.7813 93.5024 24.4074 92.1812 23.6596C90.8588 22.9096 89.7628 21.9016 88.8921 20.6369C88.0237 19.3699 87.3794 17.9599 86.9593 16.4068C86.5414 14.8515 86.333 13.2703 86.333 11.6632C86.333 10.2757 86.4817 8.89496 86.7791 7.51873C87.0764 6.14024 87.5551 4.88564 88.2163 3.75267C88.8764 2.61744 89.7628 1.70971 90.8746 1.02723C91.9885 0.342491 93.3616 0.00012207 94.9926 0.00012207H105.599V5.51857H100.872C100.323 5.51857 99.827 5.39244 99.3855 5.14016C98.9462 4.88564 98.5226 4.57142 98.1149 4.19865C97.706 3.82362 97.2769 3.44408 96.8263 3.05892C96.3758 2.6715 95.8531 2.35616 95.2584 2.1129C94.1106 1.62975 93.1014 1.45406 92.2307 1.58583C91.3623 1.71872 90.6358 2.07686 90.05 2.66249C89.4666 3.24587 89.0149 3.96665 88.6939 4.82482C88.3751 5.68412 88.1825 6.60424 88.1172 7.5863C88.0507 8.56611 88.0947 9.50537 88.2478 10.4063C88.2929 10.6293 88.3425 10.8557 88.3965 11.0866C88.4528 11.3186 88.5148 11.554 88.5813 11.7938C89.0228 10.8929 89.6333 10.1451 90.415 9.55042C91.1956 8.95578 92.1372 8.64719 93.2399 8.62242C93.9214 8.62242 94.6096 8.69449 95.3035 8.83865C95.9996 8.98281 96.6889 9.1157 97.3715 9.23508C98.053 9.35558 98.7186 9.395 99.3674 9.3522C100.018 9.30715 100.642 9.09768 101.237 8.72152L100.278 14.2084C99.3764 14.5598 98.5294 14.6702 97.7364 14.5373C96.9435 14.4055 96.1775 14.1533 95.4386 13.7805C94.6997 13.4054 93.9766 13.0462 93.2715 12.7038C92.5686 12.3614 91.8534 12.1475 91.1269 12.0596C90.3992 11.9729 89.6502 12.1486 88.8786 12.5867C89.6502 14.4607 90.9061 16.0093 92.6452 17.2312C94.3866 18.4543 96.4479 19.1536 98.8268 19.3305Z" fill="#B5C8C4"/>
<path d="M108.501 0.00012207H127.771V5.51857C126.536 5.51857 125.208 5.74381 123.788 6.1943C122.366 6.64478 120.979 7.26871 119.625 8.06382C118.27 8.85667 117.052 9.75989 115.971 10.7712C115.156 11.5641 114.463 12.4234 113.889 13.348C113.315 14.2738 112.957 15.1714 112.813 16.0419C112.671 16.9136 112.826 17.6456 113.277 18.2403C113.729 18.8349 114.562 19.1863 115.773 19.2944C116.412 19.3609 117.161 19.3395 118.021 19.2314C118.879 19.121 119.76 18.9554 120.661 18.7358C121.564 18.514 122.414 18.2538 123.207 17.9565C124.002 17.6592 124.653 17.3348 125.158 16.9834L127.771 22.0379C127.019 22.5908 126.082 23.0762 124.959 23.4929C123.835 23.9108 122.623 24.2306 121.323 24.4525C120.026 24.6721 118.716 24.7813 117.395 24.7813C116.4 24.7813 115.381 24.7048 114.335 24.5516C113.29 24.3962 112.326 24.109 111.443 23.6912C110.562 23.2745 109.852 22.6798 109.312 21.9072C108.771 21.1358 108.501 20.1323 108.501 18.898C108.501 17.5105 108.831 16.2176 109.492 15.0193C110.155 13.8188 111.037 12.7162 112.137 11.7127C113.238 10.7104 114.457 9.80719 115.791 9.00533C117.124 8.20121 118.462 7.50746 119.805 6.92409C121.148 6.33845 122.392 5.86995 123.54 5.51857H108.501V0.00012207Z" fill="#B5C8C4"/>
</svg>

<svg xmlns="http://www.w3.org/2000/svg" width="128" height="25" fill="none" viewBox="0 0 128 25"><path fill="#b5c8c4" d="M.895 24.781V.001H20.16v5.518h-3.798q-1.457 0-2.546-.415a9 9 0 0 1-1.982-1.04 29 29 0 0 1-1.703-1.289 13.4 13.4 0 0 0-1.703-1.19A5.9 5.9 0 0 0 6.414.857v10.875a6.4 6.4 0 0 1 1.834-2.18q1.175-.892 2.793-.929.99 0 2.032.217 1.041.217 2.082.396t2.013.117a4 4 0 0 0 1.87-.63l-.96 5.486q-1.154.46-2.198.36a6.6 6.6 0 0 1-2-.508 27 27 0 0 1-1.866-.892 16 16 0 0 0-1.816-.83 4.5 4.5 0 0 0-1.838-.296q-.924.05-1.946.711v12.028zM36.944 24.781l-1.586-4.757h-7.434l-1.586 4.757h-5.785L28.748.001h5.817l8.195 24.78zm-1.816-5.487L29.113 1.122l-.86 2.644q-.695 2.05-.762 3.802-.063 1.749.185 3.284.247 1.537.545 2.942.297 1.406.36 2.761.068 1.352-.396 2.74zM57.99 0h5.487v24.781H57.99v-3.27a19.2 19.2 0 0 1-3.884 2.315 10.6 10.6 0 0 1-4.38.955q-1.649 0-2.725-.626a4.65 4.65 0 0 1-1.685-1.671 7.2 7.2 0 0 1-.86-2.343 14.4 14.4 0 0 1-.249-2.694V0h5.52V5.52q0 1.915-.726 3.567a74 74 0 0 1-1.586 3.37 12.7 12.7 0 0 0-.977 2.644 12.2 12.2 0 0 0-.379 3.01q0 1.519.464 2.793.464 1.27 1.518 2.013 1.059.744 2.875.708a9.3 9.3 0 0 0 3.767-.937 16.3 16.3 0 0 0 3.307-2.104zM75.3 24.781a8.9 8.9 0 0 1-3.617-.774q-1.768-.779-3.19-2.38-1.419-1.602-2.262-4.08t-.842-5.884q0-2.08.446-4.144a12.8 12.8 0 0 1 1.437-3.766 7.7 7.7 0 0 1 2.658-2.726Q71.6 0 74.044 0h10.61V5.52h-4.726q-.825 0-1.487-.379a7.3 7.3 0 0 1-1.275-.941 42 42 0 0 0-1.288-1.14 5.7 5.7 0 0 0-1.568-.946q-1.718-.725-3.024-.527t-2.18 1.076q-.875.876-1.356 2.163a9.8 9.8 0 0 0-.577 2.761q-.1 1.47.13 2.82.464 2.577 1.933 4.627a10.26 10.26 0 0 0 3.686 3.19q2.216 1.14 4.857 1.008a7.6 7.6 0 0 0 3.505-1.072q1.653-.975 2.28-2.73.626-1.815-.1-2.739-.725-.928-2.644-.103-1.092.465-2.23 1.076a8.6 8.6 0 0 1-2.366.856q-1.221.248-2.64-.31l-.96-5.487a3.97 3.97 0 0 0 1.866.63 8.5 8.5 0 0 0 2.018-.117q1.041-.18 2.082-.396a10 10 0 0 1 2.032-.217q1.622 0 2.478.762.86.762 1.207 1.932.347 1.173.347 2.46a13.9 13.9 0 0 1-.545 4.117 10.7 10.7 0 0 1-1.766 3.519 8.7 8.7 0 0 1-2.942 2.464q-1.755.906-4.1.905M98.827 19.33q1.32.1 2.775-.198a9.1 9.1 0 0 0 2.708-1.009 5.4 5.4 0 0 0 1.982-1.9l.663.332a17.7 17.7 0 0 1-2.348 4.181q-1.42 1.865-3.338 2.955-1.917 1.091-4.393 1.09-2.714 0-4.695-1.121a9.84 9.84 0 0 1-3.289-3.023 13.8 13.8 0 0 1-1.933-4.23 18.2 18.2 0 0 1-.626-4.744q0-2.08.446-4.144a12.8 12.8 0 0 1 1.437-3.766 7.7 7.7 0 0 1 2.659-2.726Q92.546 0 94.993 0h10.606V5.52h-4.727a2.94 2.94 0 0 1-1.487-.379 7.3 7.3 0 0 1-1.27-.941 49 49 0 0 0-1.289-1.14 5.7 5.7 0 0 0-1.568-.946q-1.721-.725-3.027-.527-1.303.198-2.181 1.076-.874.876-1.356 2.163a9.8 9.8 0 0 0-.577 2.761q-.099 1.47.13 2.82.069.335.15.68.084.349.184.708a6.2 6.2 0 0 1 1.834-2.244q1.17-.89 2.825-.928 1.022 0 2.064.217 1.044.217 2.067.396t1.996.117a4 4 0 0 0 1.87-.63l-.959 5.486q-1.353.528-2.542.33a8 8 0 0 1-2.297-.758q-1.11-.563-2.167-1.076a6.7 6.7 0 0 0-2.145-.644q-1.092-.13-2.248.527 1.157 2.811 3.766 4.644 2.613 1.834 6.182 2.1M108.501 0h19.27V5.52q-1.853 0-3.983.675a20.3 20.3 0 0 0-4.163 1.87 20.4 20.4 0 0 0-3.654 2.707 13.6 13.6 0 0 0-2.082 2.577q-.86 1.388-1.076 2.694-.213 1.307.464 2.198.679.892 2.496 1.054.958.1 2.248-.063a24 24 0 0 0 2.64-.495 23 23 0 0 0 2.546-.78q1.193-.445 1.951-.973l2.613 5.055q-1.128.83-2.812 1.455a20 20 0 0 1-3.636.96q-1.946.329-3.928.328-1.492 0-3.06-.23a10.3 10.3 0 0 1-2.892-.86 5.3 5.3 0 0 1-2.131-1.784q-.811-1.157-.811-3.009 0-2.08.991-3.879.995-1.8 2.645-3.306a23 23 0 0 1 3.654-2.708 34 34 0 0 1 4.014-2.08 35 35 0 0 1 3.735-1.406h-15.039z"/></svg>
